X:1
T:Hunnys, CM
T:Hunnys, CM
T:Seven Sobs of a Sorrowful Soul, 1585
T:Public Domain Courtesy of the Cyber Hymnal™
C:Seven Sobs of a Sorrowful Soul, 1585
Z:Public Domain
Z:Courtesy of the Cyber Hymnal™
%%score ( 1 2 ) ( 3 4 )
L:1/8
Q:1/4=125
M:6/4
K:Ab
V:1 treble 
V:2 treble 
V:3 bass 
V:4 bass 
V:1
 [CF]2 | [FA]4 [FB]2 [EG]4 [EA]2 | [DG]4 F2 [C=E]4 F2 | [FB]4 [FA]2 [EA]4 [EG]2 | %4
 [EA]6- [EA]4 [EA]2 | [FB]4 [GB]2 [Gc]4 F2 | B4 [FA]2 [_EG]4 E2 | [EA]4 [CF]2 A2 z2 x6 | F6- F4 |] %9
V:2
 x2 | x12 | x4 F2 x2 F2 x2 | x12 | x12 | x10 F2 | (=D3 =E) x3 _E2 x3 | x6 F4 (G4 =E2) | F6- F4 |] %9
V:3
 [F,A,]2 | [F,C]4 [D,D]2 B,4 [C,A,]2 | D4 [D,B,]2 [C,G,]4 [A,,C]2 | [D,D]4 (DC) [E,B,]4 [E,B,]2 | %4
 [A,,C]6- [A,,C]4 [A,C]2 | D4 [F,D]2 [=E,C]4 [A,C]2 | [G,B,]4 [F,C]2 [C,C]4 [E,G,]2 | %7
 [C,A,]4 [A,,C]2 [B,,D]2 [C,G,]4 x4 | [F,,A,]6- [F,,A,]4 |] %9
V:4
 x2 | x6 (E,3 D,) x2 | (B,,3 C,) x8 | x4 B,,2 x6 | x12 | (A,3 G,) x8 | x12 | x16 | x10 |] %9

